Icons/Colored/RotateRight.svg

<svg xmlns="http://www.w3.org/2000/svg" xml:space="preserve" fill-rule="evenodd" stroke-linejoin="round" stroke-miterlimit="2" clip-rule="evenodd" viewBox="0 0 64 64">
  <g id="brown">
    <path fill="#893d00" d="M38.066 43.957a.95.95 0 0 1 .95-.949h10.765a.952.952 0 0 1 .949.949v10.766a.95.95 0 0 1-.949.949H39.016a.948.948 0 0 1-.95-.949V43.957Z"/>
  </g>
  <g id="orange">
    <path fill="#ffd49b" d="M36.066 43.957a2.952 2.952 0 0 1 2.95-2.949l10.765.004a2.948 2.948 0 0 1 2.949 2.945v10.766a2.951 2.951 0 0 1-2.949 2.949H39.016a2.95 2.95 0 0 1-2.95-2.949V43.957Zm2 0v10.766c0 .523.422.949.95.949h10.765a.95.95 0 0 0 .949-.949V43.957a.952.952 0 0 0-.949-.949H39.016a.95.95 0 0 0-.95.949Z"/>
  </g>
  <g id="blue">
    <path fill="#73a7c7" fill-rule="nonzero" d="M34.988 53.328s-8.445-.48-14.472-3.762c-4.633-2.515-7.215-7.343-7.239-10.906-.058-8.332.344-17.433 2.184-20.258 3.656-5.593 14.414-4.105 14.414-4.105V8.324l9.949 8.34-9.949 10.316v-6.585s-6.703-1.637-8.957 2.429c-1.063 1.922-1.32 9.039-1.297 16.024.024 7.812 15.192 7.586 15.192 7.586l.175 6.894Z"/>
  </g>
</svg>

<?xml version="1.0" encoding="UTF-8" standalone="no"?>
<!DOCTYPE svg PUBLIC "-//W3C//DTD SVG 1.1//EN" "http://www.w3.org/Graphics/SVG/1.1/DTD/svg11.dtd">
<svg width="100%" height="100%" viewBox="0 0 64 64" version="1.1" xmlns="http://www.w3.org/2000/svg" xmlns:xlink="http://www.w3.org/1999/xlink" xml:space="preserve" xmlns:serif="http://www.serif.com/" style="fill-rule:evenodd;clip-rule:evenodd;stroke-linejoin:round;stroke-miterlimit:2;">
    <g id="surface1">
        <path d="M38.066,43.957C38.066,43.434 38.488,43.012 39.016,43.008L49.781,43.008C50.305,43.012 50.73,43.434 50.73,43.957L50.73,54.723C50.73,55.246 50.305,55.672 49.781,55.672L39.016,55.672C38.488,55.672 38.066,55.246 38.066,54.723L38.066,43.957Z" style="fill:#893d00;"/>
        <path d="M36.066,43.957C36.066,42.328 37.387,41.012 39.016,41.008L49.781,41.012C51.406,41.012 52.73,42.328 52.73,43.957L52.73,54.723C52.73,56.352 51.406,57.672 49.781,57.672L39.016,57.672C37.387,57.672 36.066,56.352 36.066,54.723L36.066,43.957ZM38.066,43.957L38.066,54.723C38.066,55.246 38.488,55.672 39.016,55.672L49.781,55.672C50.305,55.672 50.73,55.246 50.73,54.723L50.73,43.957C50.73,43.434 50.305,43.012 49.781,43.008L39.016,43.008C38.488,43.012 38.066,43.434 38.066,43.957Z" style="fill:#ffd49b;"/>
        <path d="M34.988,53.328C34.988,53.328 26.543,52.848 20.516,49.566C15.883,47.051 13.301,42.223 13.277,38.66C13.219,30.328 13.621,21.227 15.461,18.402C19.117,12.809 29.875,14.297 29.875,14.297L29.875,8.324L39.824,16.664L29.875,26.98L29.875,20.395C29.875,20.395 23.172,18.758 20.918,22.824C19.855,24.746 19.598,31.863 19.621,38.848C19.645,46.66 34.813,46.434 34.813,46.434L34.988,53.328Z" style="fill:#73a7c7;fill-rule:nonzero;"/>
    </g>
</svg>
